src/status/scalable/strawberry-panel.svg

<svg width="64" height="64" version="1.1" viewBox="0 0 64 64" xmlns="http://www.w3.org/2000/svg">
 <g id="surface1">
  <path d="m45.625 25.1875c-2.882812-0.515625-5.761719-1.8125-8.398438-3.457031-2.40625-1.496094-4.644531-3.050781-6.449218-4.8125-3.101563-2.488281-6.082032-4.609375-10.386719-4.289063-3.976563 0.292969-6.742187 2.839844-8.613281 6.265625-2.742188 5.046875-3.589844 11.941407-3.480469 16.734375 0.085937 3.960938 0.730469 8.078125 1.886719 12.339844 1.097656 4.03125 2.644531 8.1875 4.601562 12.457031 4.550782-0.542969 8.601563-1.308593 12.222656-2.292969 3.8125-1.035156 7.152344-2.296874 10.078126-3.761718 3.566406-1.777344 8.777343-5.480469 12.480468-9.800782 2.609375-3.046874 4.441406-6.367187 4.296875-9.425781-0.03125-0.707031-0.160156-1.386719-0.359375-2.058593-0.214844-0.691407-0.515625-1.367188-0.910156-2.046876-1.953125-3.355468-4.304688-4.765624-6.96875-5.851562zm-19.125 0.382812c-0.359375 0.617188-1.070312 1.136719-2.601562 1.746094-0.089844-1.828125-0.058594-2.476562 0.300781-3.097656 0.355469-0.613281 1.066406-1.03125 1.828125-0.589844 0.761718 0.4375 0.828125 1.320313 0.472656 1.941406zm-6.625-3.824218c-0.355469 0.617187-1.066406 1.136718-2.597656 1.746094-0.089844-1.828126-0.054688-2.472657 0.300781-3.09375 0.355469-0.617188 1.066406-1.035157 1.828125-0.59375 0.761719 0.4375 0.828125 1.320312 0.46875 1.941406zm4.65625 31.902344c-0.355469 0.617187-1.066406 1.136718-2.597656 1.746093-0.089844-1.828125-0.058594-2.476562 0.300781-3.09375 0.355469-0.617187 1.0625-1.035156 1.828125-0.59375 0.757812 0.4375 0.824219 1.324219 0.46875 1.941407zm14.628906-11.347657c0.761719 0.4375 0.824219 1.328125 0.46875 1.945313-0.355468 0.613281-1.066406 1.136718-2.597656 1.742187-0.089844-1.828125-0.058594-2.472656 0.300781-3.09375 0.355469-0.625 1.066407-1.035156 1.828125-0.59375zm-21.132812 7.066407c-0.355469 0.617187-1.066406 1.136718-2.597656 1.746093-0.089844-1.828125-0.054688-2.472656 0.300781-3.09375 0.355469-0.617187 1.066406-1.035156 1.828125-0.59375 0.761718 0.4375 0.828125 1.320313 0.46875 1.941407zm0.277344-8.402344c-0.355469 0.617187-1.066407 1.136718-2.597657 1.746094-0.089843-1.828126-0.054687-2.472657 0.300781-3.097657 0.355469-0.617187 1.0625-1.035156 1.828126-0.59375 0.757812 0.441407 0.824218 1.328125 0.46875 1.945313zm13.652343 7.882812c-0.355469 0.613282-1.066406 1.136719-2.597656 1.742188-0.089844-1.828125-0.054687-2.472656 0.300781-3.09375 0.355469-0.617188 1.0625-1.035156 1.828125-0.59375 0.757813 0.4375 0.824219 1.328125 0.46875 1.945312zm15.453125-11.203125c-0.355468 0.617188-1.066406 1.136719-2.597656 1.746094-0.089844-1.828125-0.054688-2.472656 0.300781-3.097656 0.355469-0.613281 1.0625-1.03125 1.828125-0.589844 0.757813 0.4375 0.828125 1.320313 0.46875 1.941406zm-22.003906 6.554688c-0.359375 0.617187-1.070312 1.140625-2.601562 1.746093-0.09375-1.824218-0.054688-2.472656 0.300781-3.09375 0.355469-0.617187 1.066406-1.035156 1.828125-0.59375 0.761718 0.433594 0.828125 1.324219 0.472656 1.941407zm8.039062-4.191407c-0.355468 0.617188-1.070312 1.136719-2.601562 1.746094-0.089844-1.828125-0.058594-2.476562 0.300781-3.097656 0.355469-0.617188 1.070313-1.03125 1.828125-0.59375 0.761719 0.441406 0.828125 1.328125 0.472656 1.945312zm6.722657-8.21875c0.757812 0.441407 0.824219 1.328126 0.46875 1.945313s-1.066407 1.136719-2.597657 1.746094c-0.09375-1.828125-0.054687-2.472657 0.296876-3.097657 0.355468-0.621093 1.066406-1.035156 1.832031-0.59375zm-14.449219 3.757813c-0.355469 0.617187-1.066406 1.136719-2.597656 1.746094-0.089844-1.828125-0.058594-2.476563 0.300781-3.09375 0.355469-0.617188 1.066406-1.035157 1.828125-0.59375 0.757812 0.4375 0.824219 1.324219 0.46875 1.941406zm7.902344-7.535156c0.761718 0.4375 0.828125 1.328125 0.472656 1.945312-0.355469 0.613281-1.070312 1.136719-2.601562 1.742188-0.089844-1.828125-0.050782-2.472657 0.300781-3.09375 0.359375-0.621094 1.070312-1.03125 1.828125-0.59375zm-14.628906 3.652343c-0.355469 0.617188-1.066407 1.136719-2.597657 1.746094-0.089843-1.828125-0.0625-2.476562 0.296875-3.097656 0.355469-0.617188 1.066406-1.035156 1.832032-0.589844 0.761718 0.4375 0.824218 1.324219 0.46875 1.941406z" style="fill:rgb(81.960785%,21.568628%,17.647059%)"/>
  <path d="m27.820312 15.617188c1.070313 0.769531 2.109376 1.613281 3.171876 2.480468 1.867187 1.507813 3.8125 3.078125 6.042968 4.34375 2.140625 1.207032 4.09375 2.273438 6.058594 2.984375 1.4375 0.523438 2.945312 0.714844 4.25 1.34375 0.242188 0 0.484375 0 0.726562-0.007812 2.738282-0.125 5.375-1.214844 7.640626-3.734375-1.382813-1.03125-2.738282-1.75-4.054688-2.195313-1.613281-0.542969-3.179688-0.660156-4.675781-0.421875-0.523438 0.078125-1.011719-0.28125-1.09375-0.800781-0.054688-0.367187 0.097656-0.707031 0.378906-0.914063 1.71875-1.285156 3.246094-2.738281 4.320313-4.316406l0.003906-0.011718c0.761718-1.121094 1.292968-2.300782 1.496094-3.503907-1.359376-0.441406-2.777344-0.398437-4.175782 0.027344-1.832031 0.5625-3.648437 1.773437-5.316406 3.445313-0.367188 0.378906-0.980469 0.375-1.355469 0.003906-0.210937-0.214844-0.308593-0.496094-0.277343-0.78125 0.238281-2.46875 0.210937-4.921875-0.339844-6.890625-0.359375-1.3125-0.960938-2.394531-1.847656-3.097657-1.277344 0.820313-2.15625 1.867188-2.695313 3.085938-0.675781 1.519531-0.84375 3.324219-0.609375 5.289062 0.066406 0.527344-0.308594 1-0.835938 1.066407-0.386718 0.050781-0.742187-0.144531-0.929687-0.453125-1.203125-1.851563-2.496094-3.421875-3.898437-4.648438-1.109376-0.964844-2.285157-1.722656-3.535157-2.226562-1.023437 4.039062-0.3125 7.167968 1.449219 9.789062 0.035156 0.042969 0.066406 0.089844 0.101562 0.144532z" style="fill:rgb(29.411766%,62.7451%,25.882354%)"/>
 </g>
</svg>

<svg xmlns="http://www.w3.org/2000/svg" xmlns:xlink="http://www.w3.org/1999/xlink" width="64" height="64" viewBox="0 0 64 64" version="1.1">
<g id="surface1">
<path style=" stroke:none;fill-rule:nonzero;fill:rgb(81.960785%,21.568628%,17.647059%);fill-opacity:1;" d="M 45.625 25.1875 C 42.742188 24.671875 39.863281 23.375 37.226562 21.730469 C 34.820312 20.234375 32.582031 18.679688 30.777344 16.917969 C 27.675781 14.429688 24.695312 12.308594 20.390625 12.628906 C 16.414062 12.921875 13.648438 15.46875 11.777344 18.894531 C 9.035156 23.941406 8.1875 30.835938 8.296875 35.628906 C 8.382812 39.589844 9.027344 43.707031 10.183594 47.96875 C 11.28125 52 12.828125 56.15625 14.785156 60.425781 C 19.335938 59.882812 23.386719 59.117188 27.007812 58.132812 C 30.820312 57.097656 34.160156 55.835938 37.085938 54.371094 C 40.652344 52.59375 45.863281 48.890625 49.566406 44.570312 C 52.175781 41.523438 54.007812 38.203125 53.863281 35.144531 C 53.832031 34.4375 53.703125 33.757812 53.503906 33.085938 C 53.289062 32.394531 52.988281 31.71875 52.59375 31.039062 C 50.640625 27.683594 48.289062 26.273438 45.625 25.1875 Z M 26.5 25.570312 C 26.140625 26.1875 25.429688 26.707031 23.898438 27.316406 C 23.808594 25.488281 23.839844 24.839844 24.199219 24.21875 C 24.554688 23.605469 25.265625 23.1875 26.027344 23.628906 C 26.789062 24.066406 26.855469 24.949219 26.5 25.570312 Z M 19.875 21.746094 C 19.519531 22.363281 18.808594 22.882812 17.277344 23.492188 C 17.1875 21.664062 17.222656 21.019531 17.578125 20.398438 C 17.933594 19.78125 18.644531 19.363281 19.40625 19.804688 C 20.167969 20.242188 20.234375 21.125 19.875 21.746094 Z M 24.53125 53.648438 C 24.175781 54.265625 23.464844 54.785156 21.933594 55.394531 C 21.84375 53.566406 21.875 52.917969 22.234375 52.300781 C 22.589844 51.683594 23.296875 51.265625 24.0625 51.707031 C 24.820312 52.144531 24.886719 53.03125 24.53125 53.648438 Z M 39.160156 42.300781 C 39.921875 42.738281 39.984375 43.628906 39.628906 44.246094 C 39.273438 44.859375 38.5625 45.382812 37.03125 45.988281 C 36.941406 44.160156 36.972656 43.515625 37.332031 42.894531 C 37.6875 42.269531 38.398438 41.859375 39.160156 42.300781 Z M 18.027344 49.367188 C 17.671875 49.984375 16.960938 50.503906 15.429688 51.113281 C 15.339844 49.285156 15.375 48.640625 15.730469 48.019531 C 16.085938 47.402344 16.796875 46.984375 17.558594 47.425781 C 18.320312 47.863281 18.386719 48.746094 18.027344 49.367188 Z M 18.304688 40.964844 C 17.949219 41.582031 17.238281 42.101562 15.707031 42.710938 C 15.617188 40.882812 15.652344 40.238281 16.007812 39.613281 C 16.363281 38.996094 17.070312 38.578125 17.835938 39.019531 C 18.59375 39.460938 18.660156 40.347656 18.304688 40.964844 Z M 31.957031 48.847656 C 31.601562 49.460938 30.890625 49.984375 29.359375 50.589844 C 29.269531 48.761719 29.304688 48.117188 29.660156 47.496094 C 30.015625 46.878906 30.722656 46.460938 31.488281 46.902344 C 32.246094 47.339844 32.3125 48.230469 31.957031 48.847656 Z M 47.410156 37.644531 C 47.054688 38.261719 46.34375 38.78125 44.8125 39.390625 C 44.722656 37.5625 44.757812 36.917969 45.113281 36.292969 C 45.46875 35.679688 46.175781 35.261719 46.941406 35.703125 C 47.699219 36.140625 47.769531 37.023438 47.410156 37.644531 Z M 25.40625 44.199219 C 25.046875 44.816406 24.335938 45.339844 22.804688 45.945312 C 22.710938 44.121094 22.75 43.472656 23.105469 42.851562 C 23.460938 42.234375 24.171875 41.816406 24.933594 42.257812 C 25.695312 42.691406 25.761719 43.582031 25.40625 44.199219 Z M 33.445312 40.007812 C 33.089844 40.625 32.375 41.144531 30.84375 41.753906 C 30.753906 39.925781 30.785156 39.277344 31.144531 38.65625 C 31.5 38.039062 32.214844 37.625 32.972656 38.0625 C 33.734375 38.503906 33.800781 39.390625 33.445312 40.007812 Z M 40.167969 31.789062 C 40.925781 32.230469 40.992188 33.117188 40.636719 33.734375 C 40.28125 34.351562 39.570312 34.871094 38.039062 35.480469 C 37.945312 33.652344 37.984375 33.007812 38.335938 32.382812 C 38.691406 31.761719 39.402344 31.347656 40.167969 31.789062 Z M 25.71875 35.546875 C 25.363281 36.164062 24.652344 36.683594 23.121094 37.292969 C 23.03125 35.464844 23.0625 34.816406 23.421875 34.199219 C 23.777344 33.582031 24.488281 33.164062 25.25 33.605469 C 26.007812 34.042969 26.074219 34.929688 25.71875 35.546875 Z M 33.621094 28.011719 C 34.382812 28.449219 34.449219 29.339844 34.09375 29.957031 C 33.738281 30.570312 33.023438 31.09375 31.492188 31.699219 C 31.402344 29.871094 31.441406 29.226562 31.792969 28.605469 C 32.152344 27.984375 32.863281 27.574219 33.621094 28.011719 Z M 18.992188 31.664062 C 18.636719 32.28125 17.925781 32.800781 16.394531 33.410156 C 16.304688 31.582031 16.332031 30.933594 16.691406 30.3125 C 17.046875 29.695312 17.757812 29.277344 18.523438 29.722656 C 19.285156 30.160156 19.347656 31.046875 18.992188 31.664062 Z M 18.992188 31.664062 "/>
<path style=" stroke:none;fill-rule:nonzero;fill:rgb(29.411766%,62.7451%,25.882354%);fill-opacity:1;" d="M 27.820312 15.617188 C 28.890625 16.386719 29.929688 17.230469 30.992188 18.097656 C 32.859375 19.605469 34.804688 21.175781 37.035156 22.441406 C 39.175781 23.648438 41.128906 24.714844 43.09375 25.425781 C 44.53125 25.949219 46.039062 26.140625 47.34375 26.769531 C 47.585938 26.769531 47.828125 26.769531 48.070312 26.761719 C 50.808594 26.636719 53.445312 25.546875 55.710938 23.027344 C 54.328125 21.996094 52.972656 21.277344 51.65625 20.832031 C 50.042969 20.289062 48.476562 20.171875 46.980469 20.410156 C 46.457031 20.488281 45.96875 20.128906 45.886719 19.609375 C 45.832031 19.242188 45.984375 18.902344 46.265625 18.695312 C 47.984375 17.410156 49.511719 15.957031 50.585938 14.378906 L 50.589844 14.367188 C 51.351562 13.246094 51.882812 12.066406 52.085938 10.863281 C 50.726562 10.421875 49.308594 10.464844 47.910156 10.890625 C 46.078125 11.453125 44.261719 12.664062 42.59375 14.335938 C 42.226562 14.714844 41.613281 14.710938 41.238281 14.339844 C 41.027344 14.125 40.929688 13.84375 40.960938 13.558594 C 41.199219 11.089844 41.171875 8.636719 40.621094 6.667969 C 40.261719 5.355469 39.660156 4.273438 38.773438 3.570312 C 37.496094 4.390625 36.617188 5.4375 36.078125 6.65625 C 35.402344 8.175781 35.234375 9.980469 35.46875 11.945312 C 35.535156 12.472656 35.160156 12.945312 34.632812 13.011719 C 34.246094 13.0625 33.890625 12.867188 33.703125 12.558594 C 32.5 10.707031 31.207031 9.136719 29.804688 7.910156 C 28.695312 6.945312 27.519531 6.1875 26.269531 5.683594 C 25.246094 9.722656 25.957031 12.851562 27.71875 15.472656 C 27.753906 15.515625 27.785156 15.5625 27.820312 15.617188 Z M 27.820312 15.617188 "/>
</g>
</svg>
